X: 10
T: The Wren
R: reel
M: 4/4
L: 1/8
K: Amin
Ae/A/ ed/e/ | fe d/c/B/c/ | dB ed/c/ | B/A/G/A/ cB |Ae/A/ ed/e/ | fe d/c/B/c/ | dB ed/c/ | B/A/B/c/ A2 :||: AA Bc/B/ | AA B>c | dB ed/c/ | B/A/G/A/ cB |AA Bc/B/ | AA B>c | dB ed/c/ | B/A/B/c/ A2 :||: A2 eA e2 de | f2 e2 dc Bc | d2 B2 e2 dc |[1 BA GA c2 B2 :|[2 BA Bc A4 |||: A2 A2 B2 cB | A2 A2 B3 c | d2 B2 e2 dc |[1 BA GA c2 B2 :|[2 BA Bc A4 |]


Tune 2828	Setting 16034

